src/assets/outline/Key.svg

<svg width="24" height="24" viewBox="0 0 24 24"  xmlns="http://www.w3.org/2000/svg">
<path d="M6.18014 22.7499C6.08014 22.7499 5.97014 22.7399 5.88014 22.7299L3.71014 22.4299C2.67014 22.2899 1.73014 21.3599 1.57014 20.2999L1.27014 18.1099C1.17014 17.4099 1.47014 16.4999 1.97014 15.9899L6.36014 11.5999C5.65014 8.75992 6.47014 5.75992 8.56014 3.68992C11.8001 0.459923 17.0701 0.449923 20.3201 3.68992C21.8901 5.25992 22.7501 7.34992 22.7501 9.56992C22.7501 11.7899 21.8901 13.8799 20.3201 15.4499C18.2201 17.5299 15.2301 18.3499 12.4101 17.6299L8.01014 22.0199C7.59014 22.4599 6.84014 22.7499 6.18014 22.7499ZM14.4301 2.75992C12.6801 2.75992 10.9401 3.41992 9.61014 4.74992C7.81014 6.53992 7.16014 9.15992 7.91014 11.5999C7.99014 11.8699 7.92014 12.1499 7.72014 12.3499L3.02014 17.0499C2.85014 17.2199 2.71014 17.6599 2.74014 17.8899L3.04014 20.0799C3.10014 20.4599 3.51014 20.8899 3.89014 20.9399L6.07014 21.2399C6.31014 21.2799 6.75014 21.1399 6.92014 20.9699L11.6401 16.2599C11.8401 16.0599 12.1301 15.9999 12.3901 16.0799C14.8001 16.8399 17.4301 16.1899 19.2301 14.3899C20.5101 13.1099 21.2201 11.3899 21.2201 9.56992C21.2201 7.73992 20.5101 6.02992 19.2301 4.74992C17.9301 3.42992 16.1801 2.75992 14.4301 2.75992Z" />
<path d="M9.19008 20.5402C9.00008 20.5402 8.81008 20.4702 8.66008 20.3202L6.36008 18.0202C6.07008 17.7302 6.07008 17.2502 6.36008 16.9602C6.65008 16.6702 7.13008 16.6702 7.42008 16.9602L9.72008 19.2602C10.0101 19.5502 10.0101 20.0302 9.72008 20.3202C9.57008 20.4702 9.38008 20.5402 9.19008 20.5402Z" />
<path d="M14.5 11.75C13.26 11.75 12.25 10.74 12.25 9.5C12.25 8.26 13.26 7.25 14.5 7.25C15.74 7.25 16.75 8.26 16.75 9.5C16.75 10.74 15.74 11.75 14.5 11.75ZM14.5 8.75C14.09 8.75 13.75 9.09 13.75 9.5C13.75 9.91 14.09 10.25 14.5 10.25C14.91 10.25 15.25 9.91 15.25 9.5C15.25 9.09 14.91 8.75 14.5 8.75Z" />
</svg>

<?xml version="1.0" encoding="UTF-8"?>
<svg width="24" height="24" viewBox="0 0 24 24" xmlns="http://www.w3.org/2000/svg">
 <path d="m6.1801 22.75c-0.1 0-0.21-0.01-0.3-0.02l-2.17-0.3c-1.04-0.14-1.98-1.07-2.14-2.13l-0.3-2.19c-0.1-0.7 0.2-1.61 0.7-2.12l4.39-4.39c-0.71-2.84 0.11-5.84 2.2-7.91 3.24-3.23 8.51-3.24 11.76 0 1.57 1.57 2.43 3.66 2.43 5.88 0 2.22-0.86 4.31-2.43 5.88-2.1 2.08-5.09 2.9-7.91 2.18l-4.4 4.39c-0.42 0.44-1.17 0.73-1.83 0.73zm8.25-19.99c-1.75 0-3.49 0.66-4.82 1.99-1.8 1.79-2.45 4.41-1.7 6.85 0.08 0.27 0.01 0.55-0.19 0.75l-4.7 4.7c-0.17 0.17-0.31 0.61-0.28 0.84l0.3 2.19c0.06 0.38 0.47 0.81 0.85 0.86l2.18 0.3c0.24 0.04 0.68-0.1 0.85-0.27l4.72-4.71c0.2-0.2 0.49-0.26 0.75-0.18 2.41 0.76 5.04 0.11 6.84-1.69 1.28-1.28 1.99-3 1.99-4.82 0-1.83-0.71-3.54-1.99-4.82-1.3-1.32-3.05-1.99-4.8-1.99z"/>
 <path d="m9.1901 20.54c-0.19 0-0.38-0.07-0.53-0.22l-2.3-2.3c-0.29-0.29-0.29-0.77 0-1.06s0.77-0.29 1.06 0l2.3 2.3c0.29002 0.29 0.29002 0.77 0 1.06-0.15 0.15-0.34 0.22-0.53 0.22z"/>
 <path d="m14.5 11.75c-1.24 0-2.25-1.01-2.25-2.25s1.01-2.25 2.25-2.25 2.25 1.01 2.25 2.25-1.01 2.25-2.25 2.25zm0-3c-0.41 0-0.75 0.34-0.75 0.75s0.34 0.75 0.75 0.75 0.75-0.34 0.75-0.75-0.34-0.75-0.75-0.75z"/>
</svg>
